X:1
T:Ballade I
T:Ballade I
T:Op. 23
T:Frédéric Chopin
C:Chopin
%%score { ( 1 3 4 5 ) | ( 2 6 7 ) }
L:1/8
Q:1/4=68
M:4/4
K:Bb
V:1 treble nm="Piano" snm="Pno."
V:3 treble 
V:4 treble 
V:5 treble 
V:2 bass 
V:6 bass 
V:7 bass 
V:1
"^Largo."!f!"_pesante"[I:staff +1] (C,4- C,E,[Q:1/4=84]_A,B, |[I:staff -1] C_A,EB c_Aeb | %2
"_dim."!>(! c'gb_a g2!>)! ^f) z |[Q:1/4=80] z!p! (^fg)f[Q:1/4=90] ^ef (3ag_e | %4
[Q:1/4=50] e>d[Q:1/4=90] (3=fed d2 z2 | z4[Q:1/4=70]!<(! (!>!c3 G!<)! | B8-) || %7
[M:6/4][Q:1/4=122][Q:1/4=120]"^Moderato." B6"_dolce"z!p!(xxxBA | G6) (d6 | c6)z(xxxBA | G6) (=E6 | %11
 ^F6)z(xxxBA | G6) (g6 | f6)(xFxe d)z/(^c/ | ^c6 d6 | =c6)z(xxxBA | G6) (d6 | c6)z(xxxBA | %18
 G6) (=E6 | ^F6)z(xxxBA | G6) (g6 |!>(! g6!>)! d6 | c6 G6) |!>(! (g6!>)! d6 | c6 G6 | F6) (d6- | %26
 d2!<(!{/d} c2 =B2 c2 d2 e2!<)! |!>(! e6 d6)!>)! | z2!<(!{/B} (A2 ^G2 A2 B2 c2!<)! | %29
!>(! c6!>)! B6) | (A6"^ritenuto" A4- AA | A6-) A4 !>!A2- | %32
 (A/B/A/^G/ A/"_poco cresc."=g/=e/!<(!f/ f/g'/f'/=e'/ (6:4:6_e'/c'/a/b/d'/c'/ (6:4:6b/g/f/!<)!!mf!d/_e/=e/ (6:4:6f/^f/a/g/=f/_e/ | %33
 ^c) z !>!d4- (d2 =c2 G2 |!>(! B6 ^F6!>)! | G2)[Q:1/4=120]"^a tempo" ([Bb]dfe- e2) ([Aa]^ced- | %36
 d2) ([Bb]dfe- e2) ([_A_a]^ced- | d2) ([Gg]=Bdc- c2) ([Cc]^G_BA- | A2) ([Ee]=Bdc- c2) (G2 [^FA]2 | %39
[Q:1/4=133] [B,GB]2)"^agitato" !>![Bb]4[Q:1/4=153] z2 !>![Aa]4 | %40
[Q:1/4=173] z2 !>![Bb]4[Q:1/4=193] z2 !>![_A_a]4 |[Q:1/4=213] z2 !>![Gg]4[Q:1/4=233] z2 !>![Cc]4 | %42
[Q:1/4=253] z2 !>![Ee]4[Q:1/4=273] z2 !>![^F,^F]4 | %43
"^sempre più mosso" .[B,G]2 (!>![G,C]B,A,G,)[Q:1/4=282] .[B,G]2 (!>![G,C]B,A,G,) | %44
 (=FCE^F,CE ^Fcfedc | .[Bg]2) (!>![Gc]BAG .[Bg]2) (!>![Gc]BAG) | (=fce^Fce ^fc'=f'e'd'c' | %47
 .[bg']2) z!f!!8va(! ([g'c'']b'd' [^f'b']a'd'[^fb]ad) | ([gc']bd'[g'c'']b'd' [^f'b']a'd'[^fb]ad) | %49
 ([gc']bd'[g'c'']b'd' [^f'b']a'd'[^fb]ad)!8va)! | ([Gc]Bd[gc']bd [^fb]ad[^FB]AD) | %51
 [Gc](Bd[gc']bd [da]gB[Be]dG | [Gc]BD[DA]GB,[K:bass] [B,E]DG,[G,=C]B,D,) | %53
"_poco a poco meno" ([G,C]B,D,[G,D]CE, [G,C]B,D,[G,D]CE, | [G,C]B,D,[G,D]CE, [G,C]B,D,[G,D]CE,) | %55
[K:treble] (G,DB,DGB dgb!8va(!d'g'd'' | b'd''g'd'!8va)!bg dBGDB,[I:staff +1]D,) | %57
[I:staff -1] (G,DB,DGd BdGDB,[I:staff +1]D,) | (^F,[I:staff -1]DB,D^Fd BdFDB,[I:staff +1]D,) | %59
[I:staff -1] (G,DB,DGB dgb!8va(!d'g'd'' | b'd''g'd'!8va)!bg dBGDB,[I:staff +1]D,) | %61
[I:staff -1] (_G,DB,D_Gd BdGDB,[I:staff +1]D,) | (F,[I:staff -1]DB,DFd BdFDB,[I:staff +1]D,) | %63
"^smorz."!mf! (F,[I:staff -1]CA,CF[Q:1/4=240]!mp!A cf!p!a[Q:1/4=180]c'!8va(!f'a' | %64
 f''2)!8va)! z2 z2 z4 z2 |[Q:1/4=160] z12 | z4 z2 z2 z2 (!>![CF]2- | %67
!pp![Q:1/4=138]"^Meno mosso.""^sotto voce" [CF]6 G4 G2 | E6- E2) (e3 d | [Gc]6 d4 d2 | %70
 B6)!<(! (b4 b2!<)! |!mf!!>(! b4!>)!!pp! _a2) (a2 g2 ^f2 | ^f4 g4) (_a3 e | g4 =f4) (g3 d | %74
 f2 e2 d2 (3cdc =Bcde | ([CF]6) G4 G2 | E6- E2) (e3 d | [Gc]6 d4 d2 | B6) (!>!b4 b2 | b6 c4) (d2 | %80
 (3efe d2 e2 g2) (!>!g2- (3gfe |[Q:1/4=135]"_sempre" e6) z2 (G_A (3Bdc!pp! | B6-) B2 (G_A (3Bdc | %83
 B6-) B2 (F_A (3Bdc | B2-) (3B(DE (3GcB _A2- A_CEF | G4) z2 z2 (G_A (3Bdc | %86
 B2) !>!b6 (3z (G_A (3Bdc | B2) !>!b6 (3z (F_A (3Bdc | B2-) (3B(!>!DE (3GcB _A2- A!>!_CEF | %89
 G6-) G"_sempre" GBgfe |"_dimin." d6- d(Bdbde |"_e rallent." =e2[Q:1/4=115] f4-) f(dfd'c'b | %92
!<(! ^ga!<)![Q:1/4=110]!mp!f'!>(!=e'd'a!>)![Q:1/4=100]!pp! dAFD=E{/=G}F | %93
[Q:1/4=122]"^a tempo"[I:staff +1] =E,6)[I:staff -1]z"^sotto voce"(xxxc=B | A6) (=e6 | d6)z(xxxc=B | %96
 A6) (^F6 | ^G6)z(xxxc=B |!<(! A6) (=e6!<)! | ^f6)zxxx=BA | A6 ^f6 | ^g6 ^f4 z g | ^g6 ^f4 z g | %103
 ^g6 ^f4 z g | a6 ^g4 a2 |!ff! [=B=d=e^g=b]6 [deg^c']4[Q:1/4=172] [degc']2[Q:1/4=142] | %106
 [A^ca]6 [a^c'a']4 [^gc'^g']2 | [^f^c'^f']6 [=b^d'^g']4 [ad'g']2 | [=e^g=e']6 [ee']4 [ee']2 | %109
 [=e=e']4 [=d=d']2 (3[dd'][ee'][dd'] [^c^c'][dd'][^f^f'][ee'] | %110
 [dd']4 [^c^c']2 (3[cc'][dd'][cc'] [^B^b][cc'][=e=e'][dd'] | %111
 [^c^c']2 [=B=b]3 [^A^a] (4:3:4[Bb]2 [^B^b]2 [cc']2 [^G^g]2 | [=B=b]2 a3 ^g{/^fg} f2 ^efga | %113
 [=D=E^G=B]6 [EG^c=e]4 [DEGce]2 | [A,^CA]2 z2 [A^ca]2 [a^c'a']4 [^gc'^g']2 | %115
 [^f^c'^f']6 [=b^d'^g']4 [ad'g']2 |[K:Bb] [=e^g=e']4 z2!8va(! [=e'=e'']4- [e'e'']>[e'e''] | %117
[Q:1/4=172] [=e'=e'']2!8va)! z2 z2[Q:1/4=182] [^F^f]6- | %118
 [Ff]2 [^F^f]2 [^E^e][Ff] [^G^g][^A^a][=B=b][^c^c'][d=d'][=e=e'] | %119
 [^f^f']2 z2 z2 !>![^G^g]4 !^![Gg]2 |x^g=ag[^^F^^f][^Gg] [^A^a][^B^b][^c^c'][^d^d'][=e=e'][^f^f'] | %121
 [^g^g']2 z2 z2[Q:1/4=192] [^Gg]4 [Gg]2 | %122
 [^G^g]2 [^^F^^f][Gg][^A^a][=B=b] [^c^c'][^d^d'][Q:1/4=150][^e^e'][f^^f'][g^g'][a^a'] | %123
 [=b=b']2[Q:1/4=252] [^g'b']^e'^d'b [^gb]^e^d=B[^GB]^E | %124
[K:bass] ^D=B,[^G,B,]^E,^D,=B,, [G,B,]E,D,B,,_A,=F, | _B,_A,_CF,B,A, CF,B,A,CF, | %126
 _B,_A,_CF,B,A, CF,B,A,CF, | _B,_A,_CF,B,A, CF,B,A,CF, | _B,_A,_CF,B,A, CF,B,A,CF, | %129
 B,2[K:treble] B,D_CD ^CFD_A=EA | F_cGc_Ad Bd_cd^cf | d_a=eaf_c' gc'ad'bd' | %132
!8va(! _c'd'^c'f'd'_a' =e'a'f'_c''g'c'' | b'_a'_c''f'b'a' =c''f'b'a'^c''f' | %134
 b'_a'd''f'b'a' e''f'b'a'=e''f' | f''d''^c''=e''_e''=c'' =b'd''^c''_b'=a'=c'' | %136
 =b'_a'g'_b'a'f'!8va)! d'bab_ab |!p! ^fgg'd'e'=b c'g_b_ag=f | ^fgg'd'e'=b c'g_b_ag=f | %139
 ^fgg'd'e'=b c'g_b_ag=f |x_afxafxafxaf | ^fgg'd'e'=b c'g_b_ag=f | ^fgg'd'e'=b c'g_b_ag=f | %143
 ^fgg'd'e'=b c'g_b_ag=f | _fed_dc_c B=A=cBA_A | G_A=ABcB _AB=Bc_dc | =AB=Bc=dc _Bc^cded | %147
 =Bc^cded =c^cde=ef | gf=e_ed_d c=B_B=AB_A | G2 B,BD_c B,BEG=E_d | CcF=A=E_d CcFA^F_e | %151
 DdG=B^Fe DdGB^G=f | =E=eA^c^Gf ^F^f=B^d^B=a |!ff! [^c^fa^c']2 ^Bc^d^e f^ga=bc'^d' | %154
 ^e'^f'^g'a'f'^c' a^f^cA^F^C | A,^F^DAA^f ^daa^f'^d'a' |!>(! ^f'a'_e'a^fa!>)! _eA^FA_EA, | %157
!f! [B,EGB]2!p! A,B,CD E=EGFGF | cBABcd e=egfgf | c'babc'd' e'=e'g'f'g'f' | %160
 b'2 =abc'd' e'=e'g'f'g'f' | b'2 z2 z2[Q:1/4=312]!f!!8va(!{/f'} f''=e''_e''d''c''b' | %162
 a'g'f'=e'_e'd'!8va)! c'bagf=e | _e_d_cB_A_G FE_D_CB,[I:staff +1]_A, | %164
 _G,F,E,_D,_C,B,, _A,,_G,,F,,E,,_D,,_C,, |[Q:1/4=180]!ff![I:staff -1] z6 [B,DG]4 [_A,DG]2 | %166
 [G,E]2 z2 [EGe]2- [EGe]4 [EBd]2 | [EBc]6 [F=Ad]4 [EAd]2 | [DB]2 z2 z2 [Bb]4 [=B=b]2 | %169
 (5:3:5[cc']2 [b_d']2 [=ec']2 [_b=b]2 [ec']2{/[_ac']} [a_a']2 z2 z [_ec'] | %170
 (5:3:5[=db]2 [_ac']2 [db]2 [_a=a]2 [db]2{/[gb]} [gg']2 z2 z [db] | %171
 (5:3:5[c_a]2 [eb]2 [ca]2 [eg]2 [ca]2{/[fa]} [ff']2 z2 [fa]2 | %172
 [fg]2{/_b} [f_a]3 [fg] [eg]2 [ea]2 [e=a]2 | [_ABfb]6 [ABdgb]4 [ABdgb]2 | %174
 [Ge]2 z2 z2 [ege']4 [ebd']2 | [ebc']6 [f=ad']4 [ead']2 | [db]2 z2 z2 [bb']4 z [bb'] | %177
 [bb']4 z2 c4 d2 | e2 d2 e2 [dg]2 g2- (3gfe | e4 z2 z2 (3z G_A (3Bdc | B6 z2 (3z G_A (3Bdc | %181
 B6 z2 (3z F_A (3Bdc | B2 (3z DE (3GcB _A2- A_CEF | G2 z2 z2 z2 (3z G_A (3Bdc | %184
 .B .b .b'2 z2 z2 (3z G_A (3Bdc | .B .b .b'2 z2 z2 (3z F_A (3Bdc | B2 (3z DE (3GcB _A2- A_CEF | %187
 G6- G GBgfe | B6- BGBgfe | d6- dBdb=ag | d6- dBd[Q:1/4=162]bag | %191
[Q:1/4=152] dBd[Q:1/4=142]bag dBd[Q:1/4=132]bag |!>(! d[Q:1/4=122]ac'bgd BGCDFE!>)! | %193
!pp![I:staff +1] D,6[I:staff -1]zxxxBA | G6 d6 | c6zxxxBA | G6 =E6 | ^F6zxxxBA | G6 d6 | %199
!f! =e6z!p!xxxAG | G6 =e6 | ^f6 =e4 z f |!<(! ^f6 =e4 z f | ^f6 =e4 z f | a6 g4 a2 | %205
 [Bdb]2!<)! z!fff!!8va(! [d'b'][e'c''][d'b'] [c'a'][bg'][a^f'][bg'] [a=f']!8va)!z/[ge']/ | %206
 [ge'][^fd'][ec'][db][ca][Bg][Q:1/4=100] (3[A^f][ce][cd][Q:1/4=90] [=Bd]/[_Bd]/[Q:1/4=70][Ad]/[^Gd]/ [Bd]/[Ad]/[Q:1/4=50][cd]/[Bd]/ | %207
[M:2/2][Q:1/2=80] [Gd] z[Q:1/2=100]!8va(! [d'g'b']a z [bd'g'][bd'g']^f!8va)! | %208
 z[Q:1/2=110] [gbd'][gbd']^c z [dgb][dgb]B | z[Q:1/2=120] [egc'][egc']d ^c=c[egc']d | %210
 ^c=c[e^fc']d ^c=c[dfa]c |[Q:1/2=100] [Bdgb]2!8va(! [d'g'b']a z [bd'g'][bd'g']^f!8va)! | %212
 z[Q:1/2=110] [gbd'][gbd']^c z [dgb][dgb]B | z[Q:1/2=140] [egc'][egc']d ^c=c[egc']d | %214
 ^c=c[e^fc']d ^c=c[dfa]c | [Bdgb]2 _a[e'_a'] a[ea]G[eg] | ^F[=A^f]f[=a^f'] g[bg']g[Bg] | %217
 _A[e_a]a[e'_a'] a[ea]G[eg] | ^F[=A^f]f[=a^f'] g[bg']g[Bg] | =F[_A=f]f[_a=f'] f[Ae]E[Ae] | %220
 D[_Ad]d[_ad'] d[Ac]C[Ac] | C[Ec]c[ec'] c[ec']B[db] | B[db]A[ca] G[Bg]^F[A^f] | %223
 [GBg]2 _a[e'_a'] a!>![ea]G[eg] | ^F[=A^f]f[=a^f'] g[bg']g[Bg] | _A[e_a]a[e'_a'] a[ea]G[cg] | %226
 ^F[=A^f]f[=a^f'] g[bg']g[Bg] | =F[_A=f]f[_a=f'] f[Ae]E[Ae] | D[^Fd]d[^fd'] d[=E^c]^C[Ec] | %229
 =C[_E=c]c[ec'] =B[e=b]c[ec'] | c[ec']e[_g_e'] =d[g=d']e[ge'] | e[_ge']g[b_g'] f[_af']g[__bg'] | %232
 ^f[=a^f']!8va(!a[c'a'] b[d'b']c'[e'c''] | c'2 b2 b2 a2 | a2 g2 g2 d2 | %235
 z b[d'b']b [_d'b']b[c'=a']=a | [c'a']a[bg']g [bg']g[^f=d']d | z d'[g'b'd'']d'!8va)! z2 [gbd']d | %238
 z2 [GBd]D z2[I:staff +1] [G,B,D]D, | %239
[I:staff -1] z2[I:staff +1] [G,B,=E]D,[I:staff -1] z2[I:staff +1] [G,B,E]D, | %240
[I:staff -1] z2[I:staff +1] [G,B,=E]D,[I:staff -1] z2[I:staff +1] [G,B,E]D, | %241
[I:staff -1] z4 (6:4:6G,^G,A,B,=B,C | (6:4:6^CDE=EF^F (6:4:6G^GAB=B=c | %243
 (6:4:6^cde=ef^f (6:4:6g^gab=bc' | (6:4:6^c'd'e'=e'f'^f'!8va(! (6:4:6g'^g'a'b'=b'^c'' | %245
[Q:1/2=100] (29:16:29_e''d''f''e''d''c''=b'd''c''_b'a'g'^f'a'g'f'e'd'!8va)!e'd'=f'e'd'c'=bd'c'_ba | %246
[Q:1/2=80] (39:32:39g/^f/a/g/f/e/d/e/d/=f/e/d/c/=B/d/c/_B/A/G/^F/E/D/[I:staff +1]C/B,/A,/G,/^F,/E,/D,/C,/B,,/A,,/G,,/^F,,/E,,/D,,/C,,/B,,,/A,,,/ x323/40 | %247
[I:staff -1] z8 | %248
 (21:16:21z/[I:staff +1] A,,/B,,/C,/D,/=E,/^F,/G,/A,/B,/C/[I:staff -1]D/=E/^F/G/A/B/c/d/=e/^f/ | %249
[Q:1/2=40] g z z2[I:staff +1] [D,G,B,]3 [D,G,B,] | %250
 [D,G,B,]4[Q:1/2=60][I:staff -1] (6:4:6z[I:staff +1] D,G,A,CB, | %251
 B,[I:staff -1] z z2[I:staff +1] B,,4- | %252
 (28:16:28B,,/C,/D,/=E,/^F,/G,/A,/ B,/[I:staff -1]C/D/=E/^F/G/A/B/c/d/=e/^f/g/a/b/c'/d'/!8va(!=e'/^f'/g'/a'/ | %253
 b'!8va)![Q:1/2=40] z z2[I:staff +1] [D,G,B,D]3 [D,G,B,D] | %254
 [D,G,B,D]4[Q:1/2=45][I:staff -1] (6:4:6z DGBed | %255
[Q:1/2=20] .d z z2[Q:1/2=20]!8va(!{/=e''-} (3[=e'e'']2[Q:1/2=30]{/_e''-} [_e'e'']2{/d''} [d'd'']2 | %256
[Q:1/2=40]{/^c''} (3[^c'c'']2{/=c''} [=c'c'']2[Q:1/2=60]{/=b'} [=bb']2 (3.[_b_b']2 .[aa']2[Q:1/2=80] .[_a_a']2!8va)! | %257
 (6:4:6.[gg']2 .[^f^f']2 .[=f=f']2[Q:1/2=90] .[=e=e']2 .[_e_e']2 .[dd']2 | %258
 (6:4:6.[^c^c']2 .[=c=c']2 .[=B=b]2 .[_B_b]2 .[Aa]2 .[_A_a]2 | [Gg]4 z4 |!8va(! [bd'g'b']8!8va)! | %261
[Q:1/2=20] G,8 |] %262
V:2
 (C,,4- C,,E,,_A,,B,, | C,_A,,E,B, C_A,[I:staff -1]EB | cGB_A G2 ^F)[I:staff +1] z | %3
 z[I:staff -1] (^FG)F ^EF (3AG_E | E>D (3FE!ped!D D2[I:staff +1] z2 | z4!ped-up! ([E,G,C]4 | %6
!ped! !arpeggio![D,G,E]8) ||[M:6/4] z6!ped-up!!ped! D,,2 z2 z2!ped-up! | %8
!ped! z2 (.G,,2 .G,,2) z2!ped-up!!ped! (.B,2 .B,2) | %9
 z2!ped-up!!ped! (.A,2 .A,2) z2!ped-up!!ped! (.D,,2 .D,,2) | %10
!ped! z2!ped-up! (.G,,2 .G,,2)!ped-up!!ped! z2 (.A,,2 .A,,2) | %11
!ped! z2 (.D,,2 .D,,2)!ped! z2!ped-up! (.D,2 .D,2)!ped-up! | %12
!ped! z2 (.G,,2 .G,,2)!ped! z2!ped-up! (.=E2 .E2)!ped-up! | %13
!ped! z2 (.G,,2 .G,,2)!ped-up!!ped! z2 (.F,,2 .F,,2)!ped-up! | %14
!ped! z2 (.B,,2 .B,,2)!ped! z2!ped-up! (.B,2 .B,2)!ped-up! | %15
!ped! z2 (.A,2 .A,2)!ped! z2!ped-up! (.D,,2 .D,,2)!ped-up! | %16
!ped! z2 (.G,,2 .G,,2)!ped! z2!ped-up! (.B,2 .B,2)!ped-up! | %17
!ped! z2 (.A,2 .A,2)!ped! z2!ped-up! (.D,,2 .D,,2)!ped-up! | %18
!ped! z2 (.G,,2 .G,,2)!ped! z2!ped-up! (.A,,2 .A,,2)!ped-up! | %19
!ped! z2 (.D,,2 .D,,2)!ped! z2!ped-up! (.D,2 .D,2)!ped-up! | %20
!ped! z2!<(! (.G,2 .G,2)!ped! z2!ped-up!!<)! (.G,,2 .G,,2)!ped-up! | %21
!ped! z2 C,4!ped! z2!ped-up! D,4!ped-up! |!ped! z2 E,4!ped-up!!ped! z2!<(! D,4!ped-up!!<)! | %23
!ped! (!>!=B,,C,D,C, G,2)!ped-up!!ped! (!>!^C,D,E,D, G,2)!ped-up! | %24
!ped! (!>!D,E,F,E, G,2)!<(!{^D,=E,F,} TE,6!ped-up!!<)! | %25
!ped! F,6-!ped-up! F,2 ([=E,,=E,]2 [F,,F,]2 | [^F,,^F,]6-) [F,,F,]2 ([^E,,^E,]2 [F,,F,]2 | %27
 [G,,G,]12) | [D,,D,]12 |!ped! [E,,E,]12!ped-up!!ped!!ped-up! | ([C,,C,]6 [D,,D,]6) | %31
!ped! [^C,,^C,]2 (.[=E,A,=E]2 .[E,A,E]2 .[E,A,E]2 .[E,A,E]2 .[E,A,E]2)!ped-up! | %32
!ped! [=C,,=C,]2 (.[F,A,_EF]2 .[F,A,EF]2 .[F,A,EF]2 .[F,A,EF]2 .[F,A,EF]2)!ped-up! | %33
!ped! .[B,,,B,,]2 ([D,F,B,]2 [F,B,D]2)!ped-up!!ped! .E,,2 ([E,G,C]2 [G,CE]2)!ped-up! | %34
!ped! .D,,2 G,2 G,2 D,6!ped-up! |!ped! .G,,2 [G,B,]4!ped-up!!ped! .^F,,2 [^F,A,]4!ped-up! | %36
!ped! .G,,2 [G,B,]4!ped-up!!ped! .=F,,2 [=F,_A,=B,]4!ped-up! | %37
!ped! .E,,2 [G,B,]4!ped-up!!ped! .C,,2 E,4!ped-up! | %38
!ped! .D,,2 [D,C]4!ped-up!!ped! .D,,2 (A,2 D,2)!ped-up! | %39
!ped! .[G,,G,]2 G,4!ped-up!!ped! .[^F,,^F,]2 F,4!ped-up! | %40
!ped! .[G,,G,]2 G,4!ped-up!!ped! .[=F,,=F,]2 F,4!ped-up! | %41
!ped! .[E,,E,]2 E,4!ped-up!!ped! .[C,,C,]2 C,4!ped-up! | %42
!ped! .D,,2 ([A,,G,]2 [C,^F,]2) .=D,,2 ([A,,E,]2 [C,D,-]2)!ped-up! | %43
 .[G,,D,]2 [G,,,G,,]2 z2 .[G,,D,]2 G,,4 | ([G,,C,E,]6- [G,,C,E,]2 [G,,G,]2 [E,E]2 | %45
 .[D,D]2) ([G,,G,]4 .[G,D]2) G,4 |[K:treble] ([G,CE]6- [G,CE]2 [G,G]2 [Ee]2 | %47
 [Gd]2) z2 z2 (!>![E^FAe]2 d2 D2 |!ped! .G,2) (D4!ped-up! !>![E^FAe]2 d2 D2 | %49
!ped! .G,2) z2[K:bass] (D,2!ped-up! !>![E,^F,A,E]2 D2 D,2 | %50
!ped! G,,2) (D,4!ped-up! !>![E,^F,A,E]2 D2 D,2) | %51
!ped! G,,2 [D,B,]2 z2!ped-up! ([^C,,^C,]2 [D,,D,]2) z2 | %52
!ped! ([G,,,G,,]2 D,2) z2!ped-up! (^C,,2 D,,2) z2 | %53
!ped! [G,,,G,,]2 z2 (=C,,2!ped-up!!f!!ped-up!!ped! [G,,,G,,]2) z2 (C,,2 | %54
!ped! [G,,,G,,]2) z2 (C,,2!ped-up!!ped! [G,,,G,,]2) z2 (C,,2!ped-up! | %55
!ped! [G,,,G,,]6) z2 (.[DG]2!ped-up! .[G,D]2 | [DG]4) z2 z2 z2 (D,,2 | %57
!ped! !>![G,,,G,,]6-) [G,,,G,,]4 (D,,2!ped-up! |!ped! [^F,,,^F,,]6-) [F,,,F,,]4 (D,,2!ped-up! | %59
!ped! [G,,,G,,]6) z2 (.[D,G,]2 .[G,,D,]2!ped-up! | [D,G,]4) z2 z2 z2 (D,,2 | %61
!ped! [_G,,,_G,,]6-) [G,,,G,,]4 D,,2!ped-up! |!ped! F,,6- (F,,4 =G,,2!ped-up! | %63
!ped! =A,,4) z2 z2 (.[CF]2 .[F,C]2!ped-up! | [CF]6-) [CF]4 ([F,C]2 | [CF]6-) [CF]4!pp! ([F,C]2 | %66
 [CF]4 [F,C]2 [CF]2 [F,C]2) z2 |!ped! B,,,2 (B,,2 _A,2!ped-up!!ped! F,2 D2!ped-up! B,2) | %68
!ped! (E,,2 B,,2 E,2 G,2 B,2 E2)!ped-up! |!ped! (C2 E2 F,2!ped-up!!ped! E2 G2 F2)!ped-up! | %70
!ped! (B,,2 F,2 B,2[K:treble] D2 F2 B2)!ped-up! | %71
!ped! (C2 E2 F,2!ped-up!!ped! B,2 D2 _A2)!ped-up! | %72
[K:bass]!ped! (B,2 D2 E,2!ped-up!!ped! _A,2 C2 G2)!ped-up! | %73
!ped! (_A,2 C2!ped-up!!ped! D,2 G,2 =B,2 F2)!ped-up! | %74
!ped! (G,2 C2 C,2!ped-up!!ped! F,2 =A,2 E2)!ped-up! | %75
!ped! (F,2 _A,2 B,,2!ped-up!!ped! A,2 C2 B,2)!ped-up! |!ped! (E,,2 B,,2 E,2 G,2 B,2 E2)!ped-up! | %77
!ped! (C2 E2 F,2!ped-up!!ped! E2 G2 F2)!ped-up! |!ped! (B,,2 F,2 B,2[K:treble] D2 F2 B2)!ped-up! | %79
[K:bass]!ped! C,,2 (=E2 B,2 G,2 E2 B,2)!ped-up! | %80
!ped! (F,2 _E2 A,2)!ped-up!!ped! (B,,2!ped-up! D2 _A,2) |!ped! (E,,B,,G,E,B,G, E2) z2 z2!ped-up! | %82
!ped! (E,,B,,G,E,B,G, E2) z2 z2!ped-up! |!ped! (E,,B,,_A,F,B,A, D2) z2 z2!ped-up! | %84
!ped! (E,,B,, G,2) z2!ped-up!!ped! (E,,_C, _A,2) z2!ped-up! | %85
!ped! (E,,B,,G,E,B,G, E2) z2 z2!ped-up! |!ped! (E,,B,,G,E,B,G, E2) z2 z2!ped-up! | %87
!ped! (E,,B,,_A,F,B,A, D2) z2 z2!ped-up! | %88
!ped! (E,,B,, G,2) z2!ped-up!!ped! (E,,_C, _A,2) z2!ped-up! | %89
!ped! E,,B,,G,E,B,G, E2 z2 z2!ped-up! |!ped! (G,,D,B,G,DB, G2) z2 z2 |!ped-up! %91
!ped! (B,,F,[K:treble]D!ped-up!!ped!B,FD B2) z2 z2!ped-up! | %92
[K:bass]!ped! D,A,[K:treble]FDAF[I:staff -1]d[I:staff +1] z z2 z2!ped-up! | %93
[K:bass]!pp! z2!ped! (.=E,,2 .E,,2) z2 (.E,,2 .E,,2)!ped-up! | %94
!ped! z2 (.=E,,2 .E,,2) z2 (.[=E,A,]2 .[E,A,]2)!ped-up! | %95
!ped! z2 (.[=E,A,]2 .[E,A,]2) z2!ped-up!!ped! (.=E,,2 .E,,2)!ped-up! | %96
!ped! z2 (.=E,,2 .E,,2)!ped-up!!ped! z2 (.E,,2 .E,,2)!ped-up! | %97
!ped! z2 (.=E,,2 .E,,2) z2!p! (.E,,2 .E,,2)!ped-up! | %98
!ped! z2 (.=E,,2 .E,,2) z2 (.[=E,A,C]2 .[E,A,C]2)!ped-up! | %99
 z2 (.[=E,A,C]2 .[E,A,C]2)!pp! z2!ped-up!!ped! (.=E,,2 .E,,2) | %100
!ped! z2 =E,,2 E,,2 z2 [=E,A,C]2 [E,A,C]2!ped-up! | %101
!ped! z2 [=E,A,C]2 [E,A,C]2!ped-up!!ped! z2 [E,A,C]2 z2!ped-up! | %102
!ped! z2!ped-up! [=E,A,C]2 [E,A,C]2!ped-up!!ped! z2 [E,A,C]2 z2 | %103
!ped! z2!ped-up! [=E,A,C]2 [E,A,C]2!ped-up!!ped! z2 [E,A,C]2 z2 | %104
!ped! z2 [=E,A,C]2 [E,A,C]2!ped-up!!ped! z2 [E,A,C]2 !arpeggio![E,A,C]2!ped-up! | %105
!ped! [=E,,,=E,,]2 [=E,^G,D]2 [G,D=E]2 [=B,D^G]2 [G,DE]2 [E,G,D]2!ped-up! | %106
!ped! [A,,,A,,]2 [=E,^C]2 [A,=E]2 [CA]2 [A,E]2 [E,C]2!ped-up! | %107
!ped! [=B,,,=B,,]2 [^F,=B,]2 [A,^D]2 [B,^F]2 [A,D]2 [F,B,]2!ped-up! | %108
!ped! [=E,,=E,]2 [E,=B,]2 [^G,=E]2 [B,^G]2 [G,E]2 [E,B,]2!ped-up! | %109
!ped! [^F,,^F,]2 [F,=D]2 [A,A]2!ped-up!!ped! [=B,,,=B,,]2 [F,D]2 [=B,A]2!ped-up! | %110
!ped! [=E,,=E,]2 [E,^C]2 [^G,^G]2!ped-up!!ped! [A,,,A,,]2 [E,C]2 [A,G]2!ped-up! | %111
!ped! [D,,D,]2 [D,=B,]2 [^F,^F]2!ped-up!!ped! [^C,,^C,]2 [^G,^C]2 [B,^E]2!ped-up! | %112
!ped! [^F,,,^F,,]2 ^C2 [A,^F]2!ped-up!!ped! [=B,,,=B,,]2 =B,2 [A,^D]2!ped-up! | %113
!ped! [=E,,,=E,,]2 [=B,,^G,]2 [=E,=B,]2 [G,=D]2 [E,B,]2 [B,,G,]2!ped-up! | %114
!ped! [A,,,A,,]2 [=E,^C]2 [A,=E]2 [CA]2 [A,E]2 [E,C]2!ped-up! | %115
!ped! [=B,,,=B,,]2 [^F,=B,]2 [A,^D]2 [B,^F]2 [A,D]2 [F,B,]2!ped-up! | %116
[K:Bb]!ped! [=E,,=E,]2 [E,=B,]2 [^G,=E]2 [B,^G]2 [G,E]2 [E,B,]2!ped-up! | %117
!ped! [=E,,=E,]2 [E,^A,]2 [^F,^C]2 [^A,=E]2 [F,C]2 [E,A,]2!ped-up! | %118
!ped! [=E,,,=E,,]2 [=E,^A,]2 [^F,^C]2 [^A,=E]2 [F,C]2 [E,A,]2!ped-up! | %119
!ped! [=E,,=E,]2 [E,^B,]2 [^G,^D]2 [^B,^F]2 [G,D]2 [E,B,]2!ped-up! | %120
!ped! [=E,,,=E,,]2 [=E,^B,]2 [^G,^D]2 [^B,^F]2 [G,D]2 [E,B,]2!ped-up! | %121
!ped! [=E,,=E,]2 [E,^C]2 [^G,=E]2!ped-up!!ped! [^D,,^D,]2 [D,=B,]2 [G,^D]2!ped-up! | %122
!ped! [^C,,^C,]2 [C,^G,]2 [=E,^C]2!ped-up!!ped! [^G,,,^G,,]2 [=B,,G,]2 [^D,=B,]2!ped-up! | %123
!ped! [^E,,,^E,,]2 z2 z2 !arpeggio![^E,=B,^D^G]4 z2!ped-up! | z12 | _B,,,2 =D,2 z2 B,,,2 D,2 z2 | %126
 B,,,2 =D,2 z2 B,,,2 D,2 z2 | D,2 F2 z2 D,2 F2 z2 | D,2 F2 z2 D,2 F2 z2 | %129
!ped! B,,,2 z2 z2 [B,,F,_A,]2 z2 z2!ped-up! | [F,_A,D]2 z2 z2 [A,DF]2 z2 z2 | %131
[K:treble] [B,F_A]2 z2 z2 [FAd]2 z2 z2 | [_Adf]2 z2 z2 [Bf_a]2 z2 z2 | [f_ad']12- | %134
 [fad']6 [e_ac']6 | [e_ac']6 [da_b]2 z2 z2 | z12 | %137
[K:bass]!ped! E,2[K:treble] c2 B2!ped-up![K:bass]!ped-up!!ped! B,,2[K:treble] =A,2 B,2 | %138
[K:bass]!ped! E,2[K:treble] c2 B2[K:bass]!ped-up!!ped! B,,2[K:treble] =A,2 B,2!ped-up! | %139
[K:bass]!ped! E,2[K:treble] _A2 G2[K:bass]!ped-up!!ped! _A,,2[K:treble] G2 F2!ped-up! | %140
[K:bass]!ped! B,,2 E2 D2!ped-up!!ped! B,,2 C2 B,2!ped-up! | %141
!ped! E,2[K:treble] c2 B2[K:bass]!ped-up!!ped! B,,2[K:treble] =A,2 B,2!ped-up! | %142
[K:bass]!ped! E,2[K:treble] c2 B2[K:bass]!ped-up!!ped! B,,2[K:treble] =A,2 B,2!ped-up! | %143
[K:bass]!ped! E,2[K:treble] f2 e2[K:bass]!ped-up!!ped! _A,,2[K:treble] G2 F2!ped-up! | %144
[K:bass]!ped! B,,2 z2 [F,_A,D]2 [F,A,D]2 [F,A,D]2 [F,A,D]2!ped-up! | %145
!ped! [E,B,_D]2 z [E,,E,] [E,,E,]2 [_A,C]2!ped-up! [G,,G,]2 [_G,,_G,]2 | %146
!ped! [A,E]2 z [F,,F,] [F,,F,]2!ped-up! [B,D]2 [A,,A,]2 [_A,,_A,]2 | %147
!ped! [=B,F]2 z [G,,G,] [G,,G,]2!ped-up! [CE]2 !>![C,,C,]2 z2 | %148
!ped! [_A,E]2 _C,2 z2!ped-up!!ped! [A,D]2 B,,2 z2 | %149
 [E,,E,]2 [G,,G,]2 !>![_A,,_A,]2 [G,,G,]2 [E,,E,]2 !>![B,,B,]2 | %150
 [=A,,A,]2 [F,,F,]2 !>![B,,B,]2 [A,,A,]2 [F,,F,]2 !>![C,C]2 | %151
 [=B,,=B,]2 [G,,G,]2 !>![C,C]2 [B,,B,]2 [G,,G,]2 !>![D,D]2 | %152
 [^C,^C]2 [A,,A,]2 !>![=E,=E]2 [^D,^D]2 [=B,,=B,]2 !>![=D,=D]2 | %153
!ped! [^C,,^C,]2[K:treble] z [A,^C^FA] .[A,CFA]2 .[A,CFA]2 .[A,CFA]2 .[A,CFA]2!ped-up! | %154
 [A,^C^FA]6 z2 z2[K:bass] [^C,,^C,]2 | %155
!ped! [^B,,,^B,,]2 z [^F,A,^D] [F,A,D]2 [F,A,D]2 z2 [=C,,=C,]2!ped-up! | %156
!ped! [_C,,_C,]2 z [^F,A,_E] [F,A,E]2 [F,A,E]2 z2 [C,,C,]2!ped-up! | %157
 [B,,,B,,]2 z2 z2 z2 [A,CE]2 [_A,B,D]2 | [G,B,E]2 z2 z2 z2[K:treble] [=Ace]2 [_ABd]2 | %159
 [GBe]2 z2 z2 z2 [=ac'e']2 [_abd']2 | [gbe']2 z2 z2 z2 [=ac'e']2 [_abd']2 | %161
 [gbe']2 z2!ped! z2 [CEFA]2 z4!ped-up! | z2 z2 z2 z2 z4 | %163
[K:bass]!ped! !arpeggio![_C,E,_A,E]2 z2 z8!ped-up! | _C,,2 z2 z2 z6 | %165
!ped! B,,,F,,B,,=D,B,,F,, B,,,F,,B,,F,B,,F,,!ped-up! |!ped! E,,B,,E,G,E,B,, E,,C,E,B,E,C,!ped-up! | %167
!ped! F,,C,E,B,E,C,!ped-up!!ped! F,,C,E,=A,E,C,!ped-up! |!ped! B,,F,B,DB,F, B,,F,B,FB,F,!ped-up! | %169
!ped! B,,G,C=ECG,!ped-up!!ped! B,,_A,CFCA,!ped-up! | %170
!ped! B,,F,_A,DA,F,!ped-up!!ped! B,,E,G,EG,E,!ped-up! | %171
!ped! B,,E,_A,CA,E,!ped-up!!ped! B,,F,A,DA,F,!ped-up! | %172
!ped! =B,,F,G,DG,F,!ped! C,!ped-up!E,G,E_G,E,!ped-up! | %173
!ped! D,_A,B,FB,A,!ped! B,,!ped-up!F,B,DB,F,!ped-up! |!ped! E,,B,,E,G,B,E GEB,G,E,B,,!ped-up! | %175
!ped! F,,C,E,B,E,C,!ped! F,,!ped-up!C,E,=A,E,C,!ped-up! | %176
!ped! B,,,B,,F,B,DF[K:treble] dBF[K:bass]DB,F,!ped-up! |!ped! B,,=E,G,CG,E, B,,E,G,CG,E,!ped-up! | %178
!ped! B,,F,A,CA,F,!ped! B,,!ped-up!F,_A,DA,F,!ped-up! | %179
!ped! E,,B,,E,G,E,B,, E,,B,,E,B,E,B,,!ped-up! |!ped! E,,B,,E,G,E,B,, E,,B,,E,B,E,B,,!ped-up! | %181
!ped! E,,B,,D,_A,D,B,, E,,B,,D,B,D,B,,!ped-up! | %182
!ped! E,,B,,E,G,E,B,,!ped-up!!ped! E,,_C,E,_A,E,C,!ped-up! | %183
!ped! E,,B,,E,G,E,B,, E,,B,,E,B,E,B,,!ped-up! |!ped! E,,B,,E,G,E,B,, E,,B,,E,B,E,B,,!ped-up! | %185
!ped! E,,B,,D,_A,D,B,, E,,B,,D,B,D,B,,!ped-up! | %186
!ped! E,,B,,E,G,E,B,,!ped-up!!ped! E,,_C,E,_A,E,C,!ped-up! | %187
!ped! E,,B,,E,G,E,B,, E,,B,,E,B,E,B,,!ped-up! |!ped! E,,B,,E,G,E,B,, E,,B,,E,B,E,B,,!ped-up! | %189
!ped! G,,D,G,B,DB, GDB,G,D,G,,!ped-up! |!ped! G,,,G,,D,G,B,D[K:treble] BGD[K:bass]B,G,D,!ped-up! | %191
!ped! G,,D, D2 z2 z6!ped-up! | z12 |!ped! z2 D,,2 D,,2!ped-up! z2 D,,2 D,,2 | %194
!ped! z2 D,,2 D,,2 z2 [D,G,]2 [D,G,]2!ped-up! | %195
!ped! z2 [D,G,]2 [D,G,]2!ped-up!!ped! z2 D,,2 D,,2!ped-up! | %196
!ped! z2 D,,2 D,,2!ped-up!!ped! z2 D,,2 D,,2!ped-up! | %197
!ped! z2 D,,2 D,,2!ped-up!!ped! z2 D,,2 D,,2!ped-up! | %198
!ped! z2 D,,2 D,,2 z2 [D,G,B,]2 [D,G,B,]2!ped-up! | %199
 z2 [D,G,B,]2 [D,G,B,]2 z2!ped-up!!ped! D,,2 D,,2 | z2 D,,2 D,,2 z2 [D,G,B,]2 [D,G,B,]2 | %201
!ped! z2 [D,G,B,]2 [D,G,B,]2!ped-up!!ped! z2 [D,G,B,]2 z2!ped-up! | %202
!ped! z2!ped-up! [D,G,B,]2 [D,G,B,]2!ped-up!!ped! z2 [D,G,B,]2 z2 | %203
!ped! z2!ped-up! [D,G,B,]2 [D,G,B,]2!ped-up!!ped! z2 [D,G,B,]2 z2 | %204
!ped! A6!ped-up!!ped! G6!ped-up! |!ped! [D,,,D,,]2 [D,B,]2 [G,D]2 [B,G]2 [G,D]2 [D,B,]2!ped-up! | %206
!ped! [D,,,D,,]2 [D,^F,C]2 [F,CD]2 [C^F]2 [F,CD]2 [D,F,C]2!ped-up! | %207
[M:2/2]!ped! [G,,,G,,]2 z2 [B,DG]2 B,,2!ped-up! | %208
!ped! [B,DG]2 D,2!ped-up!!ped! [B,DG]2 G,2!ped-up! |!ped! [A,CG]2 A,,2 [CEG]2 A,2!ped-up! | %210
 [CD^F]2 D,2 [CDF]2 A,2 |!ped! [G,DG]2 G,,2!ped-up! [B,DG]2 B,,2 | %212
!ped! [B,DG]2 D,2!ped-up!!ped! [B,DG]2 G,2!ped-up! |!ped! [A,CG]2 A,,2 [CEG]2 A,2!ped-up! | %214
 [CD^F]2 D,2 [CDF]2 A,2 | [G,DG]2!ped! C,6!ped-up! | %216
!ped! D,2 [=A,CD]2!ped-up!!ped! G,,2 [G,B,D]2!ped-up! |!ped! z2 [_A,E]4 [A,E]2!ped-up! | %218
!ped! D,2 [=A,CD]2!ped-up!!ped! G,,2 [G,B,D]2!ped-up! | %219
!ped! z2 [F,_A,D]2!ped-up!!ped! z2 [E,A,C]2!ped-up! | z2 [F,_A,=B,]2 z2 A,2 | %221
!ped! ^F,,2 [^F,CE]2 [G,_B,D]2 G,,2!ped-up! |!ped! C,2 [A,EG]2!ped-up! z2 [A,D]2 | %223
 [B,D]2!ped! x2!ped-up! x2 [_A,E]2 |!ped! D,2 [=A,CD]2!ped-up!!ped! G,,2!ped-up! [G,B,D]2 | %225
!ped! z2 [_A,E]6!ped-up! |!ped! D,2 [=A,CD]2!ped-up!!ped! G,,2 [G,B,D]2 | %227
!ped! [=B,,,=B,,]2 [F,_A,D]2!ped-up!!ped! [C,,C,]2 [E,G,C]2!ped-up! | %228
!ped! [D,,D,]2 [^F,=A,]2!ped-up!!ped! [=C,,=C,]2 [G,_B,]2!ped-up! | %229
!ped! [^F,,^F,]2 [F,CE]2 [G,CE]2 [G,,G,]2!ped-up! | %230
!ped! [_A,,_A,]2 [A,E_G]2!ped-up! [=A,EG]2 [=A,,A,]2 | %231
!ped! [B,,B,]2 [B,E_G]2!ped-up! [_CE=A]2 [=B,,=B,]2 | %232
!ped! [C,C]2[K:treble] [CD^FA]4!ped-up! [CDFA]2 | %233
[K:bass]!ped! [B,,B,]2[K:treble] [G,DG]2[K:bass]!ped-up!!ped! [C,C]2[K:treble] [A,EG]2!ped-up! | %234
[K:bass]!ped! [D,D]2[K:treble] [DGB]2[K:bass] [C,C]2[K:treble] [CD^FA]2!ped-up! | %235
[K:bass] [B,,B,]2[K:treble] [G,DG]2[K:bass] [C,C]2[K:treble] [=A,EG]2 | %236
[K:bass]!ped! [=D,=D]2!ped-up![K:treble] [DGB]2[K:bass]!ped-up!!ped! [C,C]2[K:treble] [CD^FA]2 | %237
[K:bass]!ped! [B,,B,]2 z2[K:treble] [gbd']d z2!ped-up! | [GBd]D z2[K:bass] [G,B,D]D, z2 | %239
 [^F,,,^F,,][G,,,G,,] z2 [^C,,^C,][D,,D,] z2 | [^F,,,^F,,][G,,,G,,] z2 [^C,,^C,][D,,D,] z2 | %241
 [D,,,D,,]4 z4 | z4 [G,_B,^C=E]3 [G,B,CE] | [G,B,^C^F]4 [G,B,C=E]3 [G,B,CE] | %244
 [G,B,^C^F]4 [G,B,C=E]4 |!ped! [D,A,CG]8-!ped-up! [D,A,CG]8 | [D,A,C^F]8 x16 | G,,,8- | %248
 (21:16:21G,,,/A,,,/B,,,/C,,/D,,/=E,,/^F,,/G,,/A,,/B,,/C,/D,/=E,/^F,/G,/A,/B,/C/[I:staff -1]D/=E/^F/ | %249
 G[I:staff +1] z z2!ped! [G,,,G,,]3 [G,,,G,,] | x8!ped-up! [G,,,G,,]4 (6:4:6z D,,G,,A,,C,B,, | %251
 B,, z z2 G,,,4- | %252
 (28:16:28G,,,/A,,,/B,,,/C,,/D,,/=E,,/^F,,/ G,,/A,,/B,,/C,/D,/=E,/^F,/G,/A,/B,/C/D/[K:treble]=E/^F/G/A/B/c/d/=e/^f/ | %253
 g z z2[K:bass]!ped-up!!ped! [G,,,G,,]3 [G,,,G,,] | [G,,,G,,]4 (6:4:6z D,G,B,ED | %255
 .D z z2{/B,,,} (3[B,,,B,,]2{/=B,,,} [B,,,=B,,]2{/C,,} [C,,C,]2 | %256
{/^C,,} (3[C,,^C,]2{/D,,} [D,,D,]2{/^D,,} [D,,^D,]2 (3.[=E,,=E,]2 .[F,,F,]2 .[^F,,^F,]2 | %257
 (6:4:6.[G,,G,]2 .[^F,,^F,]2 .[=F,,=F,]2 .[=E,,=E,]2 .[_E,,_E,]2 .[D,,D,]2 | %258
 (6:4:6.[^C,,^C,]2 .[=C,,=C,]2 .[=B,,,=B,,]2 .[_B,,,_B,,]2 .[A,,,A,,]2 .[_A,,,_A,,]2 | %259
!ped! [G,,,G,,]4!ped-up! z4 | [G,DG]8 | [G,,,G,,]8 |] %262
V:3
 x8 | x8 | x8 | x8 | x8 | x8 | x/ x/- x6 x ||[M:6/4] x7 !>!C4 x | %8
 z2 (.[B,D]2 .[B,D]2) z2 (.[DG]2 .[DG]2) | z2 (.[CEG]2 .[CEG]2) x !>!C4 x | %10
 z2 (.[B,D]2 .[B,D]2) z2 (.[G,A,^C]2 .[G,A,C]2) | z2 (.[^F,A,D]2 .[F,A,D]2) x !>!=C4 x | %12
 z2 (.[B,D]2 .[B,D]2) z2 (.[GB_d]2 .[GBd]2) | z2 (.[Bc]2 .[Bc]2) !>!E6 | %14
 z2 (.[EFA]2 .[EFA]2) z2 (.[DFB]2 .[DFB]2) | z2 (.[EG]2 .[EG]2) x !>!C4 x | %16
 z2 (.[B,D]2 .[B,D]2) z2 (.[DG]2 .[DG]2) | z2 (.[CEG]2 .[CEG]2) x !>!C4 x | %18
 z2 (.[B,D]2 .[B,D]2) z2 (.[G,A,^C]2 .[G,A,C]2) | z2 (.[^F,A,D]2 .[F,A,D]2) x !>!C4 x | %20
 z2 (.[=B,DF]2 .[B,DF]2) z2 (.[FG=Bd]2 .[FGBd]2) | z2 (.[Gce]2 .[Gce]2) z2 (.[DG]2 .[DG]2) | %22
 z2 (.[CG]2 .[CG]2) z2 (.[B,D]2 .[B,D]2) | z2 (.[Gce]2 .[Gce]2) z2 (.[DG]2 .[DG]2) | %24
 z2 (.[CG]2 .[CG]2) z2 (.[B,^C]2 .[B,C]2) | z2 (.[B,D]2 .[B,D]2) z2 (.[DFB]2 .[DFB]2) | %26
 [E=A]2 [EA]2 [EA]2 [EA]2 [EA]2 [EA]2 | z2 [EB]2 [EB]2 [DB]2 [DB]2 [DB]2 | %28
 [C^F]2 [CF]2 [CF]2 [CF]2 [CF]2 [CF]2 | z2 [CG]2 [CG]2 [B,G]2 [B,G]2 [B,G]2 | %30
 [EG]2 [EG]2!<(! [EG]2 [D^F]2 [DF]2 [DF]2!<)! | !arpeggio![A,=E]2 x10 | x12 | x12 | x12 | x12 | %36
 x12 | x12 | x8 ED^C=C |x2xdfex2x^ced |x2xdfex2x^ced |x2x=Bdcx2x^G_BA |x2x=Bdcx2x^CED | x12 | x12 | %45
 x12 | x12 | x3!8va(! x9 | x12 | x12!8va)! | x12 | x12 | x6[K:bass] x6 | x12 | x12 | %55
[K:treble] x9!8va(! x3 | x4!8va)! x8 | x12 | x12 | x9!8va(! x3 | x4!8va)! x8 | x12 | x12 | %63
 x10!8va(! x2 | x2!8va)! x10 | x12 | x12 | x6 D6 | x12 | x6 A6 | B6 x6 | x12 | x12 | x12 | x12 | %75
 x6 D6 | E6 x6 | x6 A6 | B6 x6 | x12 | x12 | x12 | x12 | x12 | x2 (3:2:2x D2 x5 _C2 x | x12 | x12 | %87
 x12 | x2 (3:2:2x D2 x5 _C2 x | z/30 x12 | x4 z/30 x239/30 | x12 | x12 | x7 D4 x | %94
 z2 (.[C=E]2 .[CE]2) z2 (.A2 .A2) | z2 (.[FA]2 .[FA]2) x D4 x | %96
 z2 (.[C=E]2 .[CE]2) z2 (.[A,CE]2 .[A,CE]2) | z2 (.[=B,=E]2 .[B,E]2) x D4 x | %98
 z2 (.[C=E]2 .[CE]2) z2 (.[Ac]2 .[Ac]2) | z2 (.[=EAc]2 .[EAc]2) x C4 x | %100
 z2 [C=E]2 [CE]2 z2 [EAc]2 [EAc]2 | z2 [Ac^d]2 [Ac^d]2 z2 [Acd]2 z2 | %102
 z2 [Ac^d]2 [Acd]2 z2 [Acd]2 z2 | z2 [Ac^d]2 [Acd]2 z2 [Acd]2 z2 | %104
 z2 [c^d^f]2 [cdf]2 z2 [cdf]2 [cdf]2 | x12 | x12 | x12 | x12 | a12 | ^g12 | ^f6 ^e6 | %112
 [^c^f]6 [=A=B^d]2 [ABd][ABd][ABd][ABd] | x12 | x12 | x12 |[K:Bb] x6!8va(! x6 | x2!8va)! x10 | %118
 x2 (5:4:3x/x/x3/2 x8 | x12 | ^G4 x8 | x12 | (3xxx x10 | x12 |[K:bass] x10 _C2 | x12 | x12 | x12 | %128
 x12 | x2[K:treble] x10 | x12 | x12 |!8va(! x12 | x12 | x12 | x12 | x6!8va)! x6 | x12 | x12 | x12 | %140
 e2 x d2 x c2 x B2 x | x12 | x12 | x12 | x12 | x12 | x12 | x12 | x12 | x8 E2 =E2 | %150
 x2 F2 =E2 x2 F2 ^F2 | x2 G2 ^F2 x2 G2 ^G2 | x2 A2 ^G2 x2 =B2 ^B2 | x12 | x12 | x12 | x12 | x12 | %158
 x12 | x12 | x12 | x6!8va(! x6 | z12!8va)! | x12 | x12 | x12 | x12 | x12 | x12 | x12 | x12 | x12 | %172
 x12 | x12 | x12 | x12 | x12 | x6 C2 z2 D2 | E2 D2 E2 (4:3:4G2 _A2 B2 A2 | G4 x8 | x12 | x12 | %182
 x2 (3:2:2x D2 x5 _C2 x | x12 | x12 | x12 | x2 (3:2:2x D2 x5 _C2 x | x12 | x12 | x12 | x12 | x12 | %192
 x12 | x7 C4 x | z2 [B,D]2 [B,D]2 z2 G2 G2 | z2 [EG]2 [EG]2 x C4 x | %196
 z2 [B,D]2 [B,D]2 z2 [G,B,^C]2 [G,B,C]2 | z2 [^F,A,D]2 [F,A,D]2 x C4 x | %198
 z2 [B,D]2 [B,D]2 z2 [GB]2 [GB]2 | z2 [GB]2 [GB]2 x B,4 x | %200
 z2 [B,^C=E]2 [B,CE]2 z2 [GB^c]2 [GBc]2 | z2 [GB^c]2 [GBc]2 z2 [GBc]2 z2 | %202
 z2 [GB^c]2 [GBc]2 z2 [GBc]2 z2 | z2 [GB^c]2 [GBc]2 z2 [GBc]2 z2 | %204
 z2 [B^c=e]2 [Bce]2 z2 [Bce]2 A2 | x3!8va(! x8!8va)! x | x12 |[M:2/2] x2!8va(! x6!8va)! | x8 | x8 | %210
 x8 | x2!8va(! x6!8va)! | x8 | x8 | x8 | x6 G2 | !>!^F2 x2 g2 x2 | !>!_A2 _a2 x2 !>!G2 | %218
 !>!^F2 x2 g2 x2 | !>!F2 x4 !>!E2 | !>!D2 x4 !>!C2 | x2 c2 !>!c2 !>!B2 | B2 A2 G2 ^F2 | %223
 x2 _a2 x2 G2 | !>!^F2 x2 g2 x2 | _A2 _a2 x2 G2 | ^F2 x2 g2 x2 | F2 x4 E2 | D2 x4 ^C2 | %229
 C2 c2 =B2 c2 | c2 e2 d2 e2 | e2 _g2 f2 g2 | ^f2!8va(! a2 b2 c'2 | %233
 c'[e'c'']b[d'b'] b[d'b']a[c'a'] | a[c'a']g[bg'] g[bg']d[^fd'] | x8 | x8 | x4!8va)! x4 | x8 | x8 | %240
 x8 | x8 | x8 | x8 | x4!8va(! x4 | x99/10!8va)! x61/10 | x24 | x8 | x255/32 | x8 | x8 | x8 | %252
 x69/10!8va(! x6/5 | x!8va)! x7 | x8 | x4!8va(! x4 | x8!8va)! | x8 | x8 | x8 |!8va(! x8!8va)! | %261
 x8 |] %262
V:4
 x8 | x8 | x8 | x8 | x8 | x8 | x8 ||[M:6/4] x8 D3 x | x12 | x8 D3 x | x12 | x8 D3 x | x12 | x8 A4 | %14
 x12 | x8 D3 x | x12 | x8 D3 x | x12 | x8 D3 x | x12 | x12 | x12 | x12 | x12 | x12 | x12 | x12 | %28
 x12 | x12 | x12 | x/ x8 x7/2 | x12 | x12 | x12 | x12 | x12 | x12 | x12 | x12 | x12 | x12 | x12 | %43
 x12 | x12 | x12 | x12 | x3!8va(! x9 | x12 | x12!8va)! | x12 | x12 | x6[K:bass] x6 | x12 | x12 | %55
[K:treble] x9!8va(! x3 | x4!8va)! x8 | x12 | x12 | x9!8va(! x3 | x4!8va)! x8 | x12 | x12 | %63
 x10!8va(! x2 | x2!8va)! x10 | x12 | x12 | x12 | x12 | x12 | x12 | x12 | x12 | x12 | x12 | x12 | %76
 x12 | x12 | x12 | x12 | x12 | x12 | x12 | x12 | x12 | x12 | x12 | x12 | x12 | x361/30 | x12 | %91
 x12 | x12 | x8 =E3 x | x12 | x8 =E3 x | x12 | x8 =E3 x | x12 | x8 =E3 x | x12 | x12 | x12 | x12 | %104
 x12 | x12 | x12 | x12 | x12 | x12 | x12 | x12 | x2 A4 x6 | x12 | x12 | x12 |[K:Bb] x6!8va(! x6 | %117
 x2!8va)! x10 | x12 | x12 | x12 | x12 | x12 | x12 |[K:bass] x12 | x12 | x12 | x12 | x12 | %129
 x2[K:treble] x10 | x12 | x12 |!8va(! x12 | x12 | x12 | x12 | x6!8va)! x6 | x12 | x12 | x12 | x12 | %141
 x12 | x12 | x12 | x12 | x12 | x12 | x12 | x12 | x12 | x12 | x12 | x12 | x12 | x12 | x12 | x12 | %157
 x12 | x12 | x12 | x12 | x5 x!8va(! x x5 | x6!8va)! x6 | x12 | x12 | x12 | x12 | x12 | x12 | x12 | %170
 x12 | x12 | x12 | x12 | x12 | x12 | x12 | x12 | x8 d4 | x12 | x12 | x12 | x12 | x12 | x12 | x12 | %186
 x12 | x12 | x12 | x12 | x12 | x12 | x12 | x8 D3 x | x12 | x8 D3 x | x12 | x8 D3 x | x12 | %199
 x8 ^C3 x | x12 | x12 | x12 | x12 | x12 | x3!8va(! x8!8va)! x | x12 |[M:2/2] x2!8va(! x6!8va)! | %208
 x8 | x8 | x8 | x2!8va(! x6!8va)! | x8 | x8 | x8 | x8 | x8 | x8 | x8 | x8 | x8 | x8 | x8 | x8 | %224
 x8 | x8 | x8 | x8 | x8 | x8 | x8 | x8 | x2!8va(! x6 | x8 | x8 | x8 | x8 | x4!8va)! x4 | x8 | x8 | %240
 x8 | x8 | x8 | x8 | x4!8va(! x4 | x99/10!8va)! x61/10 | x24 | x8 | x255/32 | x8 | x8 | x8 | %252
 x69/10!8va(! x6/5 | x!8va)! x7 | x8 | x4!8va(! x4 | x8!8va)! | x8 | x8 | x8 |!8va(! x8!8va)! | %261
 x8 |] %262
V:5
 x8 | x8 | x8 | x8 | x8 | x8 | x8 ||[M:6/4] x9 ^F2 x | x12 | x9 ^F2 x | x12 | x9 ^F2 x | x12 | %13
 x12 | x12 | x9 ^F2 x | x12 | x9 ^F2 x | x12 | x9 ^F2 x | x12 | x12 | x12 | x12 | x12 | x12 | x12 | %27
 x12 | x12 | x12 | x12 | x12 | x12 | x12 | x12 | x12 | x12 | x12 | x12 | x12 | x12 | x12 | x12 | %43
 x12 | x12 | x12 | x12 | x3!8va(! x9 | x12 | x12!8va)! | x12 | x12 | x6[K:bass] x6 | x12 | x12 | %55
[K:treble] x9!8va(! x3 | x4!8va)! x8 | x12 | x12 | x9!8va(! x3 | x4!8va)! x8 | x12 | x12 | %63
 x10!8va(! x2 | x2!8va)! x10 | x12 | x12 | x12 | x12 | x12 | x12 | x12 | x12 | x12 | x12 | x12 | %76
 x12 | x12 | x12 | x12 | x12 | x12 | x12 | x12 | x12 | x12 | x12 | x12 | x12 | x361/30 | x12 | %91
 x12 | x12 | x9 ^G2 x | x12 | x9 ^G2 x | x12 | x9 ^G2 x | x12 | x9 ^G2 x | x12 | x12 | x12 | x12 | %104
 x12 | x12 | x12 | x12 | x12 | x12 | x12 | x12 | x12 | x12 | x12 | x12 |[K:Bb] x6!8va(! x6 | %117
 x2!8va)! x10 | x12 | x12 | x12 | x12 | x12 | x12 |[K:bass] x12 | x12 | x12 | x12 | x12 | %129
 x2[K:treble] x10 | x12 | x12 |!8va(! x12 | x12 | x12 | x12 | x6!8va)! x6 | x12 | x12 | x12 | x12 | %141
 x12 | x12 | x12 | x12 | x12 | x12 | x12 | x12 | x12 | x12 | x12 | x12 | x12 | x12 | x12 | x12 | %157
 x12 | x12 | x12 | x12 | x6!8va(! x6 | x6!8va)! x6 | x12 | x12 | x12 | x12 | x12 | x12 | x12 | %170
 x12 | x12 | x12 | x12 | x12 | x12 | x12 | x12 | (5:4:5x/x/x/x/x/ x10 | x12 | x12 | x12 | x12 | %183
 x12 | x12 | x12 | x12 | x12 | x12 | x12 | x12 | x12 | x12 | x9 ^F2 x | x12 | x9 ^F2 x | x12 | %197
 x9 ^F2 x | x12 | x9 =E2 x | x12 | x12 | x12 | x12 | x12 | x3!8va(! x8!8va)! x | x12 | %207
[M:2/2] x2!8va(! x6!8va)! | x8 | x8 | x8 | x2!8va(! x6!8va)! | x8 | x8 | x8 | x8 | x8 | x8 | x8 | %219
 x8 | x8 | x8 | x8 | x8 | x8 | x8 | x8 | x8 | x8 | x8 | x8 | x8 | x2!8va(! x6 | x8 | x8 | x8 | x8 | %237
 x4!8va)! x4 | x8 | x8 | x8 | x8 | x8 | x8 | x4!8va(! x4 | x99/10!8va)! x61/10 | x24 | x8 | %248
 x255/32 | x8 | x8 | x8 | x69/10!8va(! x6/5 | x!8va)! x7 | x8 | x4!8va(! x4 | x8!8va)! | x8 | x8 | %259
 x8 |!8va(! x8!8va)! | x8 |] %262
V:6
 x8 | x8 | x8 | x8 | x8 | x8 | x8 ||[M:6/4] x12 | x12 | x12 | x12 | x12 | x12 | x12 | x12 | x12 | %16
 x12 | x12 | x12 | x12 | x12 | x2 (.C,,2 .G,2) x2 (.D,,2 .G,2) | x2 (.E,,2 .G,2) x2 (.D,,2 .G,2) | %23
 x12 | x6 x/4 x/4 x/4 Tx4- x3/4 ^D,/4=E,/4 | x12 | x12 | x12 | x12 | x12 | x12 | x12 | x12 | x12 | %34
 x2 ([B,E]2 [B,D]4 [B,^C]2 [A,=C]2) | x2 (F2 E2) x2 (E2 D2) | x2 (F2 E2) x2 (E2 D2) | %37
 x2 (F2 E2) x2 (_B,2 A,2) | x2 G,2 ^F,2 x6 | x2 (=F2 [B,E]2) x2 (E2 [A,D]2) | %40
 x2 (=F2 [B,E]2) x2 (E2 [_A,=B,D]2) | x2 (=D2 [G,C]2) x2 (B,2 [E,A,]2) | x12 | x8 E,D, z2 | %44
 z2 !>!A,4- A,2 x4 | x8 (ED) z2 |[K:treble] z2 !>!A4- A2 x4 | x12 | x2 D2 d2 x6 | x4[K:bass] x8 | %50
 x2 D,2 D2 x6 | x12 | x12 | x12 | x12 | x12 | x12 | x12 | x12 | x12 | x12 | x12 | F,,,12- | %63
 F,,,4 x8 | x12 | x12 | x12 | x12 | x12 | x12 | x6[K:treble] x6 | x12 |[K:bass] x12 | x12 | x12 | %75
 x12 | x12 | x12 | x6[K:treble] x6 |[K:bass] x6 G,6 | F,6 x6 | x12 | x12 | x12 | x12 | %85
 x4 !>!B,2 x6 | x12 | x12 | x12 | x255/64 z/30 !>!B,2 x6 | x12 | x2[K:treble] x10 | %92
[K:bass] x2[K:treble] x10 |[K:bass] x12 | x6 (=E6 | D6) x6 | x6 (^F,6 | ^G,6) z6 | z6 (=E6 | %99
 ^F6) z6 | z6 ^F6 | ^G6 ^F4 z G | ^G6 ^F4 z G | ^G6 ^F4 z G | A6 ^G4 A2 | x12 | x12 | x12 | x12 | %109
 x8 D4 | x8 ^C4 | x12 | x12 | x12 | x12 | x12 |[K:Bb] x12 | x12 | x12 | x12 | x12 | x12 | x12 | %123
 x12 | x12 | x12 | x12 | x12 | x12 | x12 | x12 |[K:treble] x12 | x12 | x12 | x12 | x12 | x12 | %137
[K:bass] x2[K:treble] [EG]4[K:bass] x2[K:treble] [D_A]4 | %138
[K:bass] x2[K:treble] [EG]4[K:bass] x2[K:treble] [D_A]4 | %139
[K:bass] x2[K:treble] [B,E]4[K:bass] x2[K:treble] [_A,C]4 |[K:bass] x2 [F,_A,]4 x2 [F,A,]4 | %141
 x2[K:treble] [EG]4[K:bass] x2[K:treble] [D_A]4 | %142
[K:bass] x2[K:treble] [EG]4[K:bass] x2[K:treble] [D_A]4 | %143
[K:bass] x2[K:treble] [GB]4[K:bass] x2[K:treble] [_A,C]4 |[K:bass] x12 | x12 | x12 | x12 | x12 | %149
 x12 | x12 | x12 | x12 | x2[K:treble] x10 | x10[K:bass] x2 | x12 | x12 | x12 | x8[K:treble] x4 | %159
 x12 | x12 | x12 | x12 |[K:bass] x12 | x12 | x12 | x12 | x12 | x12 | x12 | x12 | x12 | x12 | x12 | %174
 x12 | x12 | x6[K:treble] x3[K:bass] x3 | x12 | x12 | x12 | x12 | x12 | x12 | x12 | x12 | x12 | %186
 x12 | x12 | x12 | x12 | x6[K:treble] x3[K:bass] x3 | x12 | x12 | x12 | x6 D6 | C6 x6 | x12 | x12 | %198
 x6 D6 | =E6 z6 | z6 =E6 | ^F6 =E4 z F | ^F6 =E4 z F | ^F6 =E4 z F | %204
 z2 [B,^C=E]2 [B,CE]2 z2 [B,CE]2 z2 | x12 | x12 |[M:2/2] x8 | x8 | x8 | x8 | x8 | x8 | x8 | x8 | %215
 x6 [_A,E]2 | x8 | C,8 | x8 | =B,,4 C,4 | D,4 E,4 | x8 | x4 D,4 | G,2 C,6 | x8 | C,4 D,2 E,2 | x8 | %227
 x8 | x8 | x8 | x8 | x8 | x2[K:treble] x6 |[K:bass] x2[K:treble] x2[K:bass] x2[K:treble] x2 | %234
[K:bass] x2[K:treble] x2[K:bass] x2[K:treble] x2 | %235
[K:bass] x2[K:treble] x2[K:bass] x2[K:treble] x2 | %236
[K:bass] x2[K:treble] x2[K:bass] x2[K:treble] x2 |[K:bass] x4[K:treble] x4 | x4[K:bass] x4 | x8 | %240
 x8 | x8 | x8 | x8 | x8 | x16 | x24 | x8 | x255/32 | x8 | x8 | x8 | x5[K:treble] x83/32 | %253
 x4[K:bass] x4 | x8 | x8 | x8 | x8 | x8 | x8 | x8 | x8 |] %262
V:7
 x8 | x8 | x8 | x8 | x8 | x8 | x8 ||[M:6/4] x12 | x12 | x12 | x12 | x12 | x12 | x12 | x12 | x12 | %16
 x12 | x12 | x12 | x12 | x12 | x12 | x12 | x12 | x12 | x12 | x12 | x12 | x12 | x12 | x12 | x12 | %32
 x12 | x12 | x12 | x12 | x12 | x12 | x12 | x12 | x12 | x12 | x12 | x12 | x12 | x12 | %46
[K:treble] x12 | x12 | x12 | x4[K:bass] x8 | x12 | x12 | x12 | x12 | x12 | x12 | x12 | x12 | x12 | %59
 x12 | x12 | x12 | x12 | x12 | x12 | x12 | x12 | x12 | x12 | x12 | x6[K:treble] x6 | x12 | %72
[K:bass] x12 | x12 | x12 | x12 | x12 | x12 | x6[K:treble] x6 |[K:bass] x12 | x12 | x12 | x12 | %83
 x12 | x12 | x12 | x12 | x12 | x12 | x361/30 | x12 | x2[K:treble] x10 |[K:bass] x2[K:treble] x10 | %93
[K:bass] x12 | x12 | x12 | x12 | x12 | x12 | x12 | x12 | x12 | x12 | x12 | x21/2 x-x/ | x12 | x12 | %107
 x12 | x12 | x12 | x12 | x12 | x12 | x12 | x12 | x12 |[K:Bb] x12 | x12 | x12 | x12 | x12 | x12 | %122
 x12 | x12 | x12 | x12 | x12 | x12 | x12 | x12 | x12 |[K:treble] x12 | x12 | x12 | x12 | x12 | %136
 x12 |[K:bass] x2[K:treble] x4[K:bass] x2[K:treble] x4 | %138
[K:bass] x2[K:treble] x4[K:bass] x2[K:treble] x4 | %139
[K:bass] x2[K:treble] x4[K:bass] x2[K:treble] x4 |[K:bass] x12 | %141
 x2[K:treble] x4[K:bass] x2[K:treble] x4 |[K:bass] x2[K:treble] x4[K:bass] x2[K:treble] x4 | %143
[K:bass] x2[K:treble] x4[K:bass] x2[K:treble] x4 |[K:bass] x12 | x12 | x12 | x12 | x12 | x12 | %150
 x12 | x12 | x12 | x2[K:treble] x10 | x10[K:bass] x2 | x12 | x12 | x12 | x8[K:treble] x4 | x12 | %160
 x12 | x12 | x12 |[K:bass] x12 | x12 | x12 | x12 | x12 | x12 | x12 | x12 | x12 | x12 | x12 | x12 | %175
 x12 | x6[K:treble] x3[K:bass] x3 | x12 | x12 | x12 | x12 | x12 | x12 | x12 | x12 | x12 | x12 | %187
 x12 | x12 | x12 | x6[K:treble] x3[K:bass] x3 | x12 | x12 | x12 | x12 | x12 | x12 | x12 | x12 | %199
 x12 | x12 | x12 | x12 | x12 | x12 | x12 | x12 |[M:2/2] x8 | x8 | x8 | x8 | x8 | x8 | x8 | x8 | %215
 x8 | x8 | x8 | x8 | x8 | x8 | x8 | x8 | x8 | x8 | x8 | x8 | x8 | x8 | x8 | x8 | x8 | %232
 x2[K:treble] x6 |[K:bass] x2[K:treble] x2[K:bass] x2[K:treble] x2 | %234
[K:bass] x2[K:treble] x2[K:bass] x2[K:treble] x2 | %235
[K:bass] x2[K:treble] x2[K:bass] x2[K:treble] x2 | %236
[K:bass] x2[K:treble] x2[K:bass] x2[K:treble] x2 |[K:bass] x4[K:treble] x4 | x4[K:bass] x4 | x8 | %240
 x8 | x8 | x8 | x8 | x8 | x16 | x24 | x8 | x255/32 | x8 | x8 | x8 | x5[K:treble] x83/32 | %253
 x4[K:bass] x4 | x8 | x8 | x8 | x8 | x8 | x8 | x8 | x8 |] %262

